src/Icon/svgs/Dislike.svg

<svg width="24" height="24" viewBox="0 0 24 24" fill="none" xmlns="http://www.w3.org/2000/svg">
<path fill-rule="evenodd" clip-rule="evenodd" d="M2 12.3201C2 13.0112 2.50292 13.5714 3.13495 13.5714C3.13495 13.5714 4.78158 13.5714 5.4084 13.5714C5.4084 9.38095 5.4084 5.19048 5.4084 0.999998L3.13495 0.999998C2.50814 0.999998 2 1.57283 2 2.25135L2 12.3201ZM13.3613 14.8286L19.7277 14.8286C20.9827 14.8286 22 13.7029 22 12.3143C22 12.1635 21.9877 12.0129 21.9633 11.8645L20.3477 2.03226C20.2495 1.4345 19.779 1 19.2299 1L7.68067 0.999999C7.68066 5.19048 7.68066 9.38095 7.68066 13.5714C9.95293 19.8571 11.0891 23 11.0891 23C12.7933 23 13.9294 21.7429 13.9294 19.8571C13.9294 18.6 13.74 16.9238 13.3613 14.8286Z" fill="#1B1C1D"/>
</svg>

<svg xmlns="http://www.w3.org/2000/svg" width="24" height="24" fill="none"><path fill-rule="evenodd" d="M2 12.32c0 .691.503 1.251 1.135 1.251h2.273V1H3.135C2.508 1 2 1.573 2 2.251V12.32zm11.361 2.508h6.366c1.255 0 2.272-1.126 2.272-2.514 0-.151-.012-.301-.037-.45l-1.616-9.832C20.25 1.435 19.779 1 19.23 1H7.681v12.571L11.089 23c1.704 0 2.84-1.257 2.84-3.143 0-1.257-.189-2.933-.568-5.028z" fill="#1B1C1D"/></svg>
